X: 100256
T: "CATCH AND KISS THE ROMP" -- Reel
R: reel
B: K\"ohler's Violin Repository, v.3, 1885 p.197 #1
F: http://www.archive.org/details/klersviolinrepos03rugg
Z: 2012 John Chambers <jc:trillian.mit.edu>
N: The Bs in bars 5, 7 and 9 are probably flat, too.
M: C|
L: 1/8
K: C
|:\
vGGGA _B2(Bg) | (ec)(gc) aceg | GGGA _B2(Ba) | gefd c/c/c g2 :|
(ve/f/g) (g_b) Bdfd | (ec)(gc) aceg | (e/f/g) (g_b) Bdfd | gefd c/c/c g2 |
(e/f/g) (g_b) Bdfd | (ec)(gc) aceg | (e/f/g) (ga) _bgf_e | d_Bdf c/c/c g2 "_D.C."|]

%%sep 2 1 500

